!!!COM: Mozart, Wolfgang Amadeus
!!!OPR: Quartet in B-flat Major
!!!OTL:
!!!OMV: 3
!!!SCT: K 458
!!!SCA: Chronologisch-thematisches Verzeichnis sämtlicher Tonwerke Wolfgang Amade Mozarts (L. von Köchel; 1862, 2/1905, 3/1937, 1947)
!!!YOR: Breitkopf & Härtel Edition
!!!EED: Frances Bennion
!!!ENC: Frances Bennion
!!!CDT: 1756/1/27/-1791/12/5/
!!!OCY: Österreich
!!!YEC: Copyright (c) 1994, 2000 Center for Computer Assisted Research in the Humanities
!!!YEM: Rights to all derivative editions reserved.
!!!YEM: Refer to licensing agreement for further details.
!!!YEN: United States of America
**kern	**kern	**kern	**kern
*k[b-e-a-]	*k[b-e-a-]	*k[b-e-a-]	*k[b-e-a-]
*E-:	*E-:	*E-:	*E-:
*clefG	*clefG	*clefF	*clefC
*M4/4	*M4/4	*M4/4	*M4/4
*tb96	*tb96	*tb96	*tb96
=1	=1	=1	=1
4g	4e-	[4B-	4E-
8a-	8f	8B-]	8D
16.r	16.r	8r	16.r
32g	32e-	.	32E-
8f	8d	8A-	8BB-
8e-	8e-	8G	8EE-
8r	4r	4r	4r
8G	.	.	.
=2	=2	=2	=2
8B-	2r	2r	2r
8e-	.	.	.
8g	.	.	.
8b-	.	.	.
4ee-	4G	4E-	4C
4b-	4B-	4F	4D
=3	=3	=3	=3
16.g	16.e-	8B-	8E-
32a-	32f	.	.
8b-	8g	8e-	8EE-
4r	4.r	4.r	4.r
4.cc	.	.	.
.	8e	8G	8BB-
.	4f	4A-	4AA-
8cc-	.	.	.
=4	=4	=4	=4
[4b-	8r	8r	8r
.	8d	8F	8AA-
16b-]	8e-	8G	4GG
16a	.	.	.
16a-	8B-	8E-	.
16g	.	.	.
8f	8c	8C	8AA-
4a-	8r	8r	8r
.	8A-	8F	8BB-
8d	8r	8r	8r
=5	=5	=5	=5
8e-	4G	4E-	4EE-
16r	.	.	.
16B-	.	.	.
16e-	4r	4r	4r
16g	.	.	.
16b-	.	.	.
16ee-	.	.	.
4gg	4ee-	[4b-	4e-
8aa-	8ff	8b-]	8d
16.r	16.r	8r	16.r
32gg	32ee-	.	32e-
=6	=6	=6	=6
8ff	8dd	8a-	8B-
8ee-	8ee-	8g	8E-
8r	2.r	2.r	2.r
8e-	.	.	.
8g	.	.	.
8b	.	.	.
8cc	.	.	.
8ee-	.	.	.
=7	=7	=7	=7
[4gg	16r	16r	8C
.	16e-	16c	.
.	16e-	16c	8r
.	16e-	16c	.
16gg]	16r	16r	8C
32ff	16d	16B	.
32ee	.	.	.
32ff	16d	16B	8r
32gg	.	.	.
32aa-	16d	16B	.
32gg	.	.	.
8gg	16r	16r	8C
.	16e-	16c	.
8.ee-	16g	16c	8r
.	16g	16c	.
.	16r	16r	8F
16dd	16a-	16A-	.
[8ff	16d	16A-	8r
.	16d	16A-	.
=8	=8	=8	=8
16ff]	16r	16r	8G
16cc	16e-	16G	.
8.ee-	16g	16c	8r
.	16g	16c	.
.	16r	16r	8GG
16b	16f	16d	.
[8dd	16f	16B	8r
.	16f	16B	.
32dd]	16r	16r	4C
32ff	.	.	.
32ee-	16f	16B	.
32dd	.	.	.
[8cc	16e-	16c	.
.	8e-	16B-	.
32cc]	.	16A	4F
32b-	.	.	.
32a	16e-	16c	.
32b-	.	.	.
32cc	16c	16A	.
32dd	.	.	.
32ee-	16A	16F	.
32cc	.	.	.
=9	=9	=9	=9
[4ff	16r	16r	8BB-
.	16d	16B-	.
.	16d	16B-	8r
.	16d	16B-	.
32ff]	16r	16r	8BB-
32ee-	.	.	.
32dd	16e-	16A	.
32cc	.	.	.
32dd	16c	16A	8r
32ee-	.	.	.
32ff	16a	16c	.
32gg	.	.	.
16.ff	16r	16r	8BB-
.	16b-	16d	.
32dd	.	.	.
8ff	16b-	16d	8r
.	16b-	16d	.
24r	16r	16r	4E-
24cc	.	.	.
.	16g	16e-	.
24dd	.	.	.
24ee-	16g	16c	.
24ff	.	.	.
.	16e-	16c	.
24gg	.	.	.
=10	=10	=10	=10
24r	16r	16r	4F
24b-	.	.	.
.	16d	16B-	.
24cc	.	.	.
24dd	16f	16B-	.
24ee-	.	.	.
.	16f	16d	.
24ff	.	.	.
24r	16r	16r	4F#
24ee-	.	.	.
.	16c	16A	.
24dd	.	.	.
24cc	16e-	16A	.
24b-	.	.	.
.	16e-	16c	.
24a	.	.	.
16.b-	16r	16r	4G
.	16d-	16e	.
32ddd-	.	.	.
4ddd-	16B-	16e	.
.	16B-	16e	.
.	16r	16r	4F
.	16B-	16f	.
16ccc	16d-	16f	.
16bb-	16d-	16f	.
=11	=11	=11	=11
[8bb-	16r	16r	8E
.	16d-	16g	.
32bb-]	16d-	16f	8F
32aa-	.	.	.
32gg-	16d-	16f	.
32ff	.	.	.
16ee	16r	16r	4G-
16ee	16dd-	16B-	.
16ee	16cc	16A	.
16ee	16b-	16B-	.
[2ff	4a	4c	8.F
.	.	.	32G-
.	.	.	32F
.	4b-	4d-	32E-
.	.	.	32D-
.	.	.	32C
.	.	.	32BB-
.	.	.	32AA
.	.	.	32BB-
.	.	.	32D-
.	.	.	32BB-
=12	=12	=12	=12
8.ff]	4ee-	4cc	4AA
32ee	.	.	.
32ff	.	.	.
32gg-	4dd-	4b-	4BB-
32ff	.	.	.
32ee-	.	.	.
32dd-	.	.	.
32cc	.	.	.
32b-	.	.	.
32dd-	.	.	.
32b-	.	.	.
2f	4e-	4A	8.F
.	.	.	32E
.	.	.	32F
.	4d-	4B-	32G-
.	.	.	32F
.	.	.	32E-
.	.	.	32D-
.	.	.	32C
.	.	.	32BB-
.	.	.	32D-
.	.	.	32BB-
=13	=13	=13	=13
8.g-	4c	4E-	4AA
32f	.	.	.
32e-	.	.	.
32e-	4B-	4E	4GG
32d-	.	.	.
32c	.	.	.
32B-	.	.	.
32A	.	.	.
32B-	.	.	.
32A	.	.	.
32B-	.	.	.
8c	8A	16F	8FF
.	.	16f	.
16r	16r	8.f	4.r
16d-	16B-	.	.
8c	8A	.	.
.	.	16f	.
16r	16r	[8f	.
16dd-	16b-	.	.
=14	=14	=14	=14
8cc	8a	16f]	4r
.	.	16f	.
16r	16r	4f	.
16dd	16b	.	.
8ee-	8cc	.	16r
.	.	.	16F
2r	4.r	16e	16G
.	.	16e-	16A
.	.	16d	16B-
.	.	16d	16B-
.	.	16d	16B-
.	.	16d	16B-
.	16f	16d	16B-
.	16f	16d	16B-
8r	16f	16d	16B-
.	16f	16d	16B-
=15	=15	=15	=15
4.gg	16f	16d-	16B-
.	16f	16d-	16B-
.	16f	16d-	16B-
.	16f	16d-	16B-
.	16e	16c	16B-
.	16e	16c	16B-
32ff	16e	16c	16B-
32ee	.	.	.
32dd	16e	16c	16B-
32cc	.	.	.
8cc	16f	16c	16A
.	16f	16c	16A
8ff	16f	16c	16A
.	16f	16c	16A
4r	16f	16c	16A-
.	16f	16c	16A-
.	16e-	16c	16A-
.	16e-	16c	16A-
=16	=16	=16	=16
4.ff	16e-	16c-	16A-
.	16e-	16c-	16A-
.	16e-	16c-	16A-
.	16e-	16c-	16A-
.	16d	16B-	16A-
.	16d	16B-	16A-
32ee-	16d	16B-	16A-
32dd	.	.	.
32cc	16d	16B-	16A-
32b-	.	.	.
8b-	8e-	8B-	8G
16ee-	8r	8r	4.r
16r	.	.	.
16.ee-	16.c	16.A	.
32dd	32d	32B-	.
16cc	16e-	16c	.
32r	16r	16r	.
32cc	.	.	.
=17	=17	=17	=17
16.ff	16.d	16.B-	8BB-
32ee-	32e-	32c	.
16dd	16f	16d	8r
32r	16r	16r	.
32dd	.	.	.
16gg	16e-	16c	16E-
16r	16r	16r	16r
16a	16e-	16c	16F
16r	16r	16r	16r
8b-	16d	16B-	4BB-
.	16dd	16b-	.
8r	16dd	16b-	.
.	16dd	16b-	.
16ff	16dd	16b-	4r
16ff	16dd	16b-	.
16ff	16dd	16b-	.
16ff	16dd	16b-	.
=18	=18	=18	=18
16ff	16dd-	16b-	4.g
16ff	16dd-	16b-	.
16ff	16dd-	16b-	.
16ff	16dd-	16b-	.
16ee	16cc	16b-	.
16ee	16cc	16b-	.
16ee	16cc	16b-	32f
.	.	.	32e
16ee	16cc	16b-	32d
.	.	.	32c
16ff	16cc	16b-	8c
16ff	16cc	16b-	.
16ff	16cc	16a	8f
16ff	16cc	16a	.
16ff	16cc	16a-	4r
16ff	16cc	16a-	.
16ee-	16cc	16a-	.
16ee-	16cc	16a-	.
=19	=19	=19	=19
16ee-	16cc-	16a-	4.f
16ee-	16cc-	16a-	.
16ee-	16cc-	16a-	.
16ee-	16cc-	16a-	.
16dd	16b-	16a-	.
16dd	16b-	16a-	.
16dd	16b-	16a-	32e-
.	.	.	32d
16dd	16b-	16a-	32c
.	.	.	32B-
8ee-	16b-	16a-	8B-
.	16b-	16a-	.
8r	16b-	16g	16e-
.	16b-	16g	16r
32cc	16.e-	16.c	8F
32dd	.	.	.
32ee-	.	.	.
32ee	32d	32B-	.
16ff	16c	16A	8r
16r	32r	32r	.
.	32c	32A	.
=20	=20	=20	=20
32ff	16.f	16.d	8BB-
32gg	.	.	.
32aa-	.	.	.
32aa	32e-	32c	.
16bb-	16d	16B-	8r
2r	32r	32r	.
.	32d	32B-	.
.	16g	16B-	16E-
.	16r	16r	16r
.	16e-	16A	16F
.	16r	16r	16r
.	8d	8B-	8G
.	8r	4r	8r
16r	.	.	.
16.ee-	16.cc	.	32C
.	.	.	32D
.	.	.	32E-
32dd	32b-	.	32E
16cc	16a	32f	16F
.	.	32e	.
32r	32r	32f	16r
32cc	32a	32e-	.
=21	=21	=21	=21
16.ff	16.dd	16d	32D
.	.	.	32E-
.	.	16r	32F
32ee-	32cc	.	32F#
16dd	16b-	32g	16G
.	.	32f#	.
32r	32r	32g	16r
32dd	32b-	32f	.
16gg	16b-	16e-	16E-
16r	16r	16r	16r
16a	16e-	16c	16F
16r	16.r	16.r	16r
4b-	.	.	16B-
.	32d	32B-	.
.	32f	32d	16B-
.	32d	32B-	.
.	32f	32d	16B-
.	32d	32B-	.
.	32f	32d	16B-
.	32d	32B-	.
4b	32r	32r	16G
.	32d	32G	.
.	32f	32d	16G
.	32d	32G	.
.	32f	32d	16G
.	32d	32G	.
.	32f	32d	16G
.	32d	32G	.
=22	=22	=22	=22
16cc	32r	32r	16E-
.	32e-	32G	.
16ee-	32g	32c	16E-
.	32e-	32G	.
8.gg	32g	32c	16E-
.	32e-	32G	.
.	32g	32c	16E-
.	32e-	32B-	.
.	32r	32r	16F
.	32c	32A	.
32ff	32e-	32c	16F
32ee-	32c	32A	.
32dd	32e-	32c	16F
32cc	32c	32A	.
32b-	32e-	32c	16F
32a	32c	32F	.
4b-	32r	32r	16BB-
.	32d	32F	.
.	32f	32d	16BB-
.	32d	32B-	.
.	32f	32d	16BB-
.	32d	32B-	.
.	32f	32d	16BB-
.	32d	32B-	.
4b	32r	32r	16GG
.	32d	32G	.
.	32f	32d	16GG
.	32d	32G	.
.	32f	32d	16GG
.	32d	32G	.
.	32f	32d	16GG
.	32d	32G	.
=23	=23	=23	=23
24cc	32r	32r	16EE-
.	32e-	32G	.
24ee-	.	.	.
.	32g	32c	16EE-
24gg	.	.	.
.	32e-	32G	.
8.gg	32g	32c	16EE-
.	32e-	32G	.
.	32g	32c	16EE-
.	32e-	32G	.
.	32r	32r	16FF
.	32c	32A	.
32ff	32e-	32c	16FF
32ee-	32c	32A	.
32dd	32e-	32c	16FF
32cc	32c	32A	.
32b-	32e-	32c	16FF
32a	32c	32F	.
16b-	32d	32F	16BB-
.	32f	32D	.
16r	32d	32F	16r
.	32B-	32D	.
32cc	16A	16E-	16FF
32ee-	.	.	.
32dd	16r	16r	16r
32cc	.	.	.
16b-	32B-	32D	16BB-
.	32f	32D	.
16r	32d	32F	16r
.	32B-	32D	.
32cc	16A	16E-	16FF
32ee-	.	.	.
32dd	16r	16r	16r
32cc	.	.	.
=24	=24	=24	=24
16b-	32B-	32D	8BB-
.	32A	32C	.
16r	32c	32E-	.
.	32B-	32D	.
32dd	16d	16F	8r
32cc	.	.	.
32ee-	16r	16r	.
32dd	.	.	.
16ff	32d	32B-	8BB-
.	32c	32A	.
16r	32e-	32c	.
.	32d	32B-	.
32ff	16f	16d	8r
32ee	.	.	.
32gg	16r	16r	.
32ff	.	.	.
32aa-	4B-	4d	2BB-
32gg	.	.	.
32bb-	.	.	.
32aa-	.	.	.
32gg	.	.	.
32ff	.	.	.
32ee-	.	.	.
32dd	.	.	.
32cc	8c	8e-	.
32b-	.	.	.
32a	.	.	.
32b-	.	.	.
32a	8d	8f	.
32b-	.	.	.
32cc	.	.	.
32a-	.	.	.
=25	=25	=25	=25
4g	4e-	[4B-	4E-
8a-	8f	8B-]	8D
16.r	16.r	8r	16.r
32g	32e-	.	32E-
8f	8d	8A-	8BB-
8e-	8e-	8G	8EE-
8r	4r	4r	4r
8G	.	.	.
=26	=26	=26	=26
8B-	2r	2r	2r
8e-	.	.	.
8g	.	.	.
8b-	.	.	.
4ee-	4G	4E-	4C
4b-	4B-	4F	4D
=27	=27	=27	=27
16.g	16.e-	8B-	8E-
32a-	32f	.	.
8b-	8g	8e-	8EE-
8r	2r	2r	8r
8e-	.	.	8GG
8g	.	.	8BB-
8b-	.	.	8E-
8ee-	8r	8r	8G
8gg	8dd-	8b-	8B-
=28	=28	=28	=28
16.bb-	8b-	8g	8d-
32ccc	.	.	.
8ddd-	8g	8e	8D-
8r	8e	8d-	4r
8e	8d-	8B-	.
8g	16.ee	8G	8C
.	32ff	.	.
8b-	8gg	8E	8CC
8ee	4r	4r	4r
8gg	.	.	.
=29	=29	=29	=29
[4ccc	16r	16r	8F
.	16a-	16f	.
.	16a-	16f	8r
.	16a-	16f	.
16ccc]	16r	16r	8F
32bb-	16g	16e	.
32aa	.	.	.
32bb-	16g	16e	8r
32ccc	.	.	.
32ddd-	16g	16e	.
32ccc	.	.	.
8ccc	16r	16r	8F
.	16a-	16f	.
8.aa-	16cc	16f	8r
.	16cc	16f	.
.	16r	16r	8BB-
16gg	16b-	16d-	.
[8bb-	16g	16d-	8r
.	16g	16d-	.
=30	=30	=30	=30
16bb-]	16r	16r	8C
16ff	16a-	16c	.
8.aa-	16f	16c	8r
.	16f	16c	.
.	16r	16r	8C
16ee	16g	16B-	.
[8gg	16e	16B-	8r
.	16e	16B-	.
32gg]	16r	16r	4FF
32bb-	.	.	.
32aa-	16e	16B-	.
32gg	.	.	.
[8ff	16f	16A-	.
.	16e-	8A-	.
32ff]	16d	.	4BB-
32ee-	.	.	.
32dd	16a-	16F	.
32ee-	.	.	.
32ff	16f	16D	.
32gg	.	.	.
32aa-	16d	16F	.
32ff	.	.	.
=31	=31	=31	=31
[4bb-	16r	16r	8EE-
.	16e-	16G	.
.	16e-	16G	8r
.	16e-	16G	.
32bb-]	16r	16r	8EE-
32aa-	.	.	.
32gg	16d	16F	.
32ff	.	.	.
32gg	16d	16F	8r
32aa-	.	.	.
32bb-	16d	16F	.
32ccc	.	.	.
16.bb-	16r	16r	8EE-
.	16e-	16G	.
32gg	.	.	.
8bb-	16e-	16G	8r
.	16e-	16G	.
24r	16r	16r	4A-
24ff	.	.	.
.	16cc	16a-	.
24gg	.	.	.
24aa-	16cc	16f	.
24bb-	.	.	.
.	16a-	16f	.
24ccc	.	.	.
=32	=32	=32	=32
24r	16r	16r	4B-
24ee-	.	.	.
.	16g	16e-	.
24ff	.	.	.
24gg	16b-	16e-	.
24aa-	.	.	.
.	16b-	16g	.
24bb-	.	.	.
24r	16r	16r	4B
24aa-	.	.	.
.	16f	16d	.
24gg	.	.	.
24ff	16a-	16d	.
24ee-	.	.	.
.	16a-	16f	.
24dd	.	.	.
16.ff	16r	16r	4c
.	16a	16g-	.
32ee-	.	.	.
8.ee-	16a	16g-	.
.	16a	16g-	.
.	16r	16r	4B-
16eee-	16b-	16g-	.
16eee-	16b-	16g-	.
16eee-	16b-	16g-	.
=33	=33	=33	=33
[8eee-	16r	16r	8A
.	16cc	16g-	.
32eee-	16b-	16g-	8B-
32ddd-	.	.	.
32ccc-	16b-	16g-	.
32bb-	.	.	.
16aa	16r	16r	4c-
16aa	16gg-	16e-	.
16aa	16ff	16d	.
16aa	16ee-	16e-	.
[2bb-	4dd	4f	8.B-
.	.	.	32c-
.	.	.	32B-
.	4ee-	4g-	32A-
.	.	.	32G-
.	.	.	32F
.	.	.	32E-
.	.	.	32D
.	.	.	32E-
.	.	.	32G-
.	.	.	32E-
=34	=34	=34	=34
8.bb-]	4ff	4a-	4D
32aa	.	.	.
32bb-	.	.	.
32ccc-	4ee-	4g-	4E-
32bb-	.	.	.
32aa-	.	.	.
32gg-	.	.	.
32ff	.	.	.
32ee-	.	.	.
32gg-	.	.	.
32ee-	.	.	.
2b-	4a-	4d	8.B-
.	.	.	32A
.	.	.	32B-
.	4g-	4e-	32c-
.	.	.	32B-
.	.	.	32A-
.	.	.	32G-
.	.	.	32F
.	.	.	32E-
.	.	.	32G-
.	.	.	32E-
=35	=35	=35	=35
8.cc-	4f	4A-	4D
32b-	.	.	.
32a-	.	.	.
32a-	4e-	8A	4C
32g-	.	.	.
32f	.	.	.
32e-	.	.	.
32d	.	8c	.
32e-	.	.	.
32d	.	.	.
32e-	.	.	.
8f	8d	8F	16BB-
.	.	.	16BB-
16r	16r	8.r	8BB-
16g-	16e-	.	.
8f	8d	.	4r
.	.	16B-	.
16r	16r	[8B-	.
16gg-	16ee-	.	.
=36	=36	=36	=36
8ff	8dd	16B-]	4r
.	.	16b-	.
16r	16r	4b-	.
16gg	16ee	.	.
8aa-	8ff	.	16r
.	.	.	16B-
2r	4.r	16a	16c
.	.	16a-	16d
.	.	16g	16e-
.	.	16g	16e-
.	.	16g	16e-
.	.	16g	16e-
.	16b-	16g	16e-
.	16b-	16g	16e-
8r	16b-	16g	16e-
.	16b-	16g	16e-
=37	=37	=37	=37
4.ccc	16b-	16g-	16e-
.	16b-	16g-	16e-
.	16b-	16g-	16e-
.	16b-	16g-	16e-
.	16a	16f	16e-
.	16a	16f	16e-
32bb-	16a	16f	16e-
32aa	.	.	.
32gg	16a	16f	16e-
32ff	.	.	.
8ff	16b-	16f	16d
.	16b-	16f	16d
8bb-	16b-	16f	16d
.	16b-	16f	16d
4r	16b-	16f	16d-
.	16b-	16f	16d-
.	16a-	16f	16d-
.	16a-	16f	16d-
=38	=38	=38	=38
4.bb-	16a-	16f-	16d-
.	16a-	16f-	16d-
.	16a-	16f-	16d-
.	16a-	16f-	16d-
.	16g	16e-	16d-
.	16g	16e-	16d-
32aa-	16g	16e-	16d-
32gg	.	.	.
32ff	16g	16e-	16d-
32ee-	.	.	.
8ee-	8a-	8e-	8c
16aa-	8r	8r	8r
16r	.	.	.
16.aa-	16.f	16.d	8B-
32gg	32g	32e-	.
16ff	16a-	16f	8r
32r	16r	16r	.
32ff	.	.	.
=39	=39	=39	=39
16.bb-	16.g	16.e-	8E-
32aa-	32a-	32f	.
16gg	16b-	16g	8r
32r	16r	16r	.
32gg	.	.	.
16ccc	16a-	16f	16A-
16r	16r	16r	16r
16dd	16a-	16f	16B-
16r	16r	16r	16r
8ee-	16g	16e-	4E-
.	16g	16e-	.
8r	16g	16e-	.
.	16g	16e-	.
16b-	16g	16e-	4r
16b-	16g	16e-	.
16b-	16g	16e-	.
16b-	16g	16e-	.
=40	=40	=40	=40
16b-	16g-	16e-	4.c
16b-	16g-	16e-	.
16b-	16g-	16e-	.
16b-	16g-	16e-	.
16a	16f	16e-	.
16a	16f	16e-	.
16a	16f	16e-	32B-
.	.	.	32A
16a	16f	16e-	32G
.	.	.	32F
16b-	16f	16e-	8F
16b-	16f	16e-	.
16b-	16f	16d	8B-
16b-	16f	16d	.
16b-	16f	16d-	4r
16b-	16f	16d-	.
16a-	16f	16d-	.
16a-	16f	16d-	.
=41	=41	=41	=41
16a-	16f-	16d-	4.B-
16a-	16f-	16d-	.
16a-	16f-	16d-	.
16a-	16f-	16d-	.
16g	16e-	16d-	.
16g	16e-	16d-	.
16g	16e-	16d-	32A-
.	.	.	32G
16g	16e-	16d-	32F
.	.	.	32E-
8a-	16e-	16d-	8E-
.	16e-	16d-	.
8r	16e-	16c	16A-
.	16e-	16c	16r
32ff	16.a-	16.f	8BB-
32gg	.	.	.
32aa-	.	.	.
32aa	32g	32e-	.
16bb-	16f	16d	8r
16r	32r	32r	.
.	32f	32d	.
=42	=42	=42	=42
32b-	16.b-	16.g	8EE-
32cc	.	.	.
32dd-	.	.	.
32dd	32a-	32f	.
16ee-	16g	16e-	8r
2r	32r	32r	.
.	32g	32e-	.
.	16cc	16e-	16AA-
.	16r	16r	16r
.	16a-	16d	16BB-
.	16r	16r	16r
.	8g	8e-	8C
.	8r	4r	8r
16r	.	.	.
16.aa-	16.ff	.	32F
.	.	.	32G
.	.	.	32A-
32gg	32ee-	.	32A
16ff	16dd	32b-	16B-
.	.	32a	.
32r	32r	32b-	16r
32ff	32dd	32a-	.
=43	=43	=43	=43
16.bb-	16.gg	16g	32G
.	.	.	32A-
.	.	16r	32B-
32aa-	32ff	.	32B
16gg	16ee-	32cc	16c
.	.	32b	.
32r	32r	32cc	16r
32gg	32ee-	32b-	.
16ccc	16ee-	16a-	16A-
16r	16r	16r	16r
16dd	16a-	16f	16B-
16r	16.r	16.r	16r
4ee-	.	.	16E-
.	32g	32e-	.
.	32b-	32g	16E-
.	32g	32e-	.
.	32b-	32g	16E-
.	32g	32e-	.
.	32b-	32g	16E-
.	32g	32e-	.
4ee	32r	32r	16C
.	32g	32B-	.
.	32b-	32g	16C
.	32g	32B-	.
.	32b-	32g	16C
.	32g	32B-	.
.	32b-	32g	16C
.	32g	32B-	.
=44	=44	=44	=44
16ff	32r	32r	16AA-
.	32a-	32c	.
16aa-	32cc	32f	16AA-
.	32a-	32c	.
8.ccc	32cc	32f	16AA-
.	32a-	32c	.
.	32cc	32f	16AA-
.	32a-	32c	.
.	32r	32r	16BB-
.	32f	32d	.
32bb-	32a-	32f	16BB-
32aa-	32f	32d	.
32gg	32a-	32f	16BB-
32ff	32f	32d	.
32ee-	32a-	32f	16BB
32dd	32f	32A-	.
8ee-	32r	32r	16C
.	32e-	32G	.
.	32g	32e-	16C
.	32e-	32G	.
4e-	32g	32e-	16C
.	32e-	32G	.
.	32g	32e-	16C
.	32e-	32G	.
.	32r	32r	16BB-
.	32B-	32G	.
.	32d-	32B-	16BB-
.	32B-	32G	.
8e	32d-	32B-	16BB-
.	32B-	32G	.
.	32d-	32B-	16BB-
.	32B-	32G	.
=45	=45	=45	=45
24f	32r	32r	16AA-
.	32c	32A-	.
24a-	.	.	.
.	32f	32c	16AA-
24cc	.	.	.
.	32c	32A-	.
8.cc	32f	32c	16AA-
.	32c	32A-	.
.	32f	32c	16AA-
.	32c	32A-	.
.	32r	32r	16BB-
.	32d	32F	.
32b-	32f	32A-	16BB-
32a-	32d	32F	.
32g	32B-	32D	16BB-
32f	32A-	32F	.
32e-	32B-	32A-	16BB-
32d	32A-	32F	.
16e-	32G	32E-	16EE-
.	32e-	32G	.
16r	32g	32B-	16r
.	32e-	32G	.
32f	16d	16A-	16BB-
32a-	.	.	.
32g	16r	16r	16r
32f	.	.	.
16e-	32e-	32G	16E-
.	32g	32B-	.
16r	32b-	32e-	16r
.	32ee-	32g	.
32ff	16dd	16a-	16B-
32aa-	.	.	.
32gg	16r	16r	16r
32ff	.	.	.
=46	=46	=46	=46
16ee-	32e-	32G	8E-
.	32d	32F	.
16r	32f	32A-	.
.	32e-	32G	.
32ee-	16g	16B-	8r
32dd	.	.	.
32ff	16r	16r	.
32ee-	.	.	.
16gg	32g	32e-	8E-
.	32f	32d	.
16r	32a-	32f	.
.	32g	32e-	.
32gg	16b-	16g	8r
32ff	.	.	.
32aa-	16r	16r	.
32gg	.	.	.
16bb-	32b-	32g	8E-
.	32a-	32f	.
16r	32cc	32a-	.
.	32b-	32g	.
32bb-	16dd-	16b-	4.r
32aa-	.	.	.
32ccc	4r	4r	.
32bb-	.	.	.
8ddd-	.	.	.
8r	.	.	.
.	16r	16r	.
=47	=47	=47	=47
4.cc	8r	8r	8r
.	8e	8G	8BB-
.	4f	4A-	4AA-
8cc-	.	.	.
[4b-	8r	8r	8r
.	8d	8F	8AA-
16b-]	8e-	8G	4GG
16a	.	.	.
16a-	8B-	8E-	.
16g	.	.	.
=48	=48	=48	=48
8f	8c	8C	8AA-
4a-	8r	8r	8r
.	8A-	8F	8BB-
8d	8r	8r	8r
8e-	4G	4E-	4C
16r	.	.	.
16gg	.	.	.
16aa-	4r	4r	4r
16aa	.	.	.
16bb-	.	.	.
16bb	.	.	.
=49	=49	=49	=49
[4ccc	16r	16r	2r
.	16e	16c	.
.	16f	16d	.
.	16g	16e	.
16ccc]	8a-	8f	.
16gg	.	.	.
16aa-	8.r	8.r	.
16aa	.	.	.
[4bb-	.	.	16r
.	16b-	16d	16B-
.	16cc	16e-	16A
.	16dd	16f	16A-
16bb-]	8ee-	8g	4G
16aa	.	.	.
16aa-	8b-	8e-	.
16gg	.	.	.
=50	=50	=50	=50
8ff	8cc	8c	8A-
4aa-	8r	8r	8r
.	8a-	8f	8B-
8dd	8r	8r	8r
8ee-	8g	16e-	4E-
.	.	16B-	.
16r	16r	16e-	.
16ee-	16b-	16g	.
16gg	16ee-	[4b-	8r
16bb-	16gg	.	.
16aa-	16ff	.	8B-
16ff	16dd	.	.
=51	=51	=51	=51
8ee-	8ee-	16b-]	4e-
.	.	16b-	.
16r	16r	16g	.
16e-	16G	16e-	.
16g	16e-	8.B-	8r
16b-	16g	.	.
16a-	16f	.	8BB-
16f	16d	16A-	.
8e-	4e-	4G	4E-
16r	.	.	.
16G	.	.	.
16B-	4r	4r	4r
16e-	.	.	.
16g	.	.	.
16b-	.	.	.
=52	=52	=52	=52
4ee-	4G	4E-	4CC
4b-	4B-	4F	4DD
16.g	16.e-	8B-	8EE-
32a-	32f	.	.
8b-	8g	8e-	8E-
4r	4r	4r	4r
=53	=53	=53	=53
8f	8d	8A-	8BB-
8f	8d	8A-	8BB-
8f	8d	8A-	8BB-
8b-	8d	8A-	8BB-
8e-	8e-	8G	8E-
4.r	4.r	4.r	4.r
==	==	==	==
*-	*-	*-	*-
!!!RWG1: This file contains only pitch and duration data.
!!!RWG2: Transposing instruments are not transposed.
!!!RWG3: Spines may have incompatible meters.
!!!RWG4: Durations of rests and tied notes may be interpreted.
!!!RWG: Key is interpreted using the Humdrum key tool.
!!!OPT: Hunt
!!!AFT: stage1
!!!END: 1997/04/15
!!format changes:
!!content changes:
!!public access: complete
!!!KEY: 1401700869
!!!EMD: Converted from MuseData to Humdrum Dec 16, 2000, by Andreas Kornstaedt using muse2kern.
